; generated by PrusaSlicer 2.9.4 on 2026-04-28 at 07:51:42 UTC


;
;

;
;
; 

; external perimeters extrusion width = 0.45mm
; perimeters extrusion width = 0.45mm
; infill extrusion width = 0.45mm
; solid infill extrusion width = 0.45mm
; top infill extrusion width = 0.40mm
; first layer extrusion width = 0.42mm

M73 P0 R266
M201 X1250 Y1250 Z400 E5000 ; sets maximum accelerations, mm/sec^2
M203 X180 Y180 Z12 E80 ; sets maximum feedrates, mm / sec
M204 S1250 T1250 ; sets acceleration (S) and retract acceleration (R), mm/sec^2
M205 X8.00 Y8.00 Z2.00 E10.00 ; sets the jerk limits, mm/sec
M205 S0 T0 ; sets the minimum extruding and travel feed rate, mm/sec

; printing object Second Layer.stl id:0 copy 0
; stop printing object Second Layer.stl id:0 copy 0

;TYPE:Custom
G90 ; use absolute coordinates
M83 ; extruder relative mode
M104 S170 ; set extruder temp for bed leveling
M140 S60 ; set bed temp
M109 R170 ; wait for bed leveling temp
M190 S60 ; wait for bed temp
G28 ; home all without mesh bed level
G29 ; mesh bed leveling 
M104 S215 ; set extruder temp
G92 E0.0
G1 Y-2.0 X179 F2400
G1 Z3 F720
M109 S215 ; wait for extruder temp

; intro line
G1 X170 F1000
G1 Z0.2 F720
G1 X110.0 E8.0 F900
G1 X40.0 E10.0 F700
G92 E0.0

M221 S95 ; set flow
G21 ; set units to millimeters
G90 ; use absolute coordinates
M83 ; use relative distances for extrusion
M900 K0.2 ; Filament gcode LA 1.5
; ; Filament gcode LA 1.0
M107
;LAYER_CHANGE
;Z:0.2
;HEIGHT:0.2
G1 E-3.2 F4200
G1 Z.4 F9000
G1 X28.906 Y30.368
G1 Z.2
G1 E3.2 F2400
M204 S800
;TYPE:Skirt/Brim
;WIDTH:0.42
G1 F1200
G1 X35.646 Y23.959 E.29162
G1 X43.127 Y18.238 E.29529
G1 X51.526 Y13.173 E.30752
G1 X60.192 Y9.191 E.29903
G1 X69.011 Y6.238 E.2916
G1 X78.213 Y4.227 E.29533
G1 X87.307 Y3.238 E.28682
G1 X96.726 Y3.224 E.29533
G1 X106.092 Y4.227 E.29534
G1 X115.178 Y6.209 E.29158
G1 X124.585 Y9.378 E.31124
G1 X133.018 Y13.3 E.29161
G1 X141.081 Y18.168 E.29531
G1 X148.57 Y23.88 E.29532
G1 X155.398 Y30.368 E.29532
G1 X161.485 Y37.556 E.29533
G1 X166.619 Y45.128 E.28684
G1 X171.044 Y53.443 E.29533
G1 X174.503 Y62.076 E.2916
G1 X177.078 Y71.259 E.29903
G1 X178.6 Y80.434 E.29161
G1 X179.137 Y90.346 E.31124
G1 X178.616 Y99.631 E.29158
G1 X177.078 Y108.924 E.29534
G1 X174.544 Y117.995 E.2953
G1 X171.044 Y126.74 E.29534
G1 X166.619 Y135.055 E.29533
G1 X161.485 Y142.627 E.28684
G1 X155.398 Y149.815 E.29533
G1 X148.659 Y156.224 E.29159
G1 X140.757 Y162.231 E.31122
G1 X132.779 Y167.01 E.29159
G1 X124.113 Y170.993 E.29904
G1 X115.294 Y173.945 E.29159
G1 X106.092 Y175.956 E.29533
G1 X96.997 Y176.945 E.28685
G1 X87.578 Y176.96 E.29533
G1 X78.213 Y175.956 E.29532
G1 X69.126 Y173.974 E.29162
G1 X59.72 Y170.805 E.31121
G1 X51.286 Y166.883 E.29164
G1 X43.223 Y162.015 E.29531
G1 X35.734 Y156.303 E.29532
G1 X28.906 Y149.815 E.29532
G1 X22.983 Y142.842 E.28686
G1 X17.686 Y135.055 E.29529
G1 X13.261 Y126.74 E.29533
M73 P0 R265
G1 X9.802 Y118.107 E.2916
G1 X7.227 Y108.924 E.29903
G1 X5.705 Y99.749 E.29161
G1 X5.167 Y89.838 E.31121
G1 X5.689 Y80.552 E.29162
G1 X7.227 Y71.259 E.29534
G1 X9.761 Y62.188 E.2953
G1 X13.261 Y53.443 E.29534
G1 X17.546 Y45.361 E.28682
G1 X22.819 Y37.556 E.29533
G1 X28.867 Y30.414 E.29344
M204 S1250
G1 E-2.24 F4200
;WIPE_START
G1 F7200
G1 X28.906 Y30.368 E-.03342
G1 X30.118 Y29.216 E-.92658
;WIPE_END
G1 Z.4 F9000
G1 X30.757 Y32.021
G1 Z.2
G1 E3.2 F2400
M204 S800
G1 F1200
G1 X30.818 Y31.949 E.00296
G1 X37.447 Y25.673 E.28622
G1 X44.698 Y20.159 E.28562
G1 X52.519 Y15.448 E.28627
G1 X60.783 Y11.616 E.28561
G1 X69.412 Y8.696 E.28563
G1 X78.345 Y6.714 E.2869
G1 X87.442 Y5.71 E.28696
G1 X96.862 Y5.71 E.29536
G1 X105.897 Y6.704 E.285
G1 X114.771 Y8.662 E.28493
G1 X123.366 Y11.554 E.28434
G1 X131.62 Y15.36 E.28499
G1 X139.692 Y20.217 E.29538
G1 X146.968 Y25.767 E.28693
G1 X153.602 Y32.071 E.28694
G1 X159.489 Y39.021 E.28558
G1 X164.595 Y46.566 E.28565
G1 X168.867 Y54.634 E.28624
G1 X172.238 Y63.097 E.28563
G1 X174.678 Y71.873 E.2856
G1 X176.162 Y80.881 E.28625
G1 X176.665 Y89.977 E.28563
G1 X176.184 Y99.095 E.28629
G1 X174.66 Y108.392 E.29539
G1 X172.198 Y117.206 E.28694
G1 X168.797 Y125.701 E.28691
G1 X164.519 Y133.743 E.28561
G1 X159.388 Y141.295 E.28627
G1 X153.487 Y148.234 E.2856
G1 X146.857 Y154.511 E.28627
G1 X139.606 Y160.024 E.2856
G1 X131.785 Y164.735 E.28627
G1 X123.521 Y168.567 E.28561
G1 X114.893 Y171.488 E.28561
G1 X105.959 Y173.469 E.28692
G1 X96.863 Y174.473 E.28693
G1 X87.442 Y174.473 E.29539
G1 X78.408 Y173.479 E.28496
G1 X69.533 Y171.521 E.28496
G1 X60.938 Y168.629 E.28434
G1 X52.685 Y164.823 E.28496
G1 X44.613 Y159.966 E.29538
G1 X37.336 Y154.416 E.28695
G1 X30.703 Y148.112 E.28692
G1 X24.815 Y141.162 E.2856
G1 X19.699 Y133.6 E.28627
G1 X15.429 Y125.531 E.28624
G1 X12.06 Y117.067 E.28563
G1 X9.622 Y108.29 E.28562
G1 X8.14 Y99.282 E.28624
G1 X7.639 Y90.186 E.28563
G1 X8.12 Y81.088 E.28566
G1 X9.644 Y71.792 E.29536
G1 X12.107 Y62.977 E.28697
G1 X15.507 Y54.482 E.2869
G1 X19.785 Y46.44 E.28561
G1 X24.916 Y38.888 E.28627
G1 X30.718 Y32.067 E.28077
M204 S1250
G1 X31.004 Y32.31 F9000
M204 S800
G1 F1200
G1 X31.084 Y32.216 E.00387
G1 X37.684 Y25.967 E.28498
G1 X44.902 Y20.477 E.28434
G1 X52.687 Y15.786 E.28498
G1 X60.914 Y11.97 E.28435
G1 X69.523 Y9.056 E.28497
G1 X78.417 Y7.084 E.28564
G1 X87.473 Y6.086 E.28566
G1 X96.831 Y6.086 E.29341
G1 X105.825 Y7.074 E.2837
G1 X114.661 Y9.022 E.2837
G1 X123.217 Y11.901 E.28305
G1 X131.452 Y15.698 E.28433
G1 X139.471 Y20.523 E.29343
G1 X146.716 Y26.048 E.28568
G1 X153.32 Y32.322 E.28561
G1 X159.183 Y39.241 E.28435
G1 X164.277 Y46.768 E.28497
G1 X168.529 Y54.801 E.28498
G1 X171.884 Y63.227 E.28436
G1 X174.312 Y71.964 E.28432
G1 X175.788 Y80.933 E.285
G1 X176.288 Y89.987 E.28431
G1 X175.808 Y99.064 E.285
G1 X174.294 Y108.3 E.29345
G1 X171.844 Y117.075 E.28566
G1 X168.459 Y125.533 E.28564
G1 X164.201 Y133.54 E.28434
G1 X159.094 Y141.058 E.28497
G1 X153.22 Y147.967 E.28434
G1 X146.621 Y154.217 E.28498
G1 X139.403 Y159.706 E.28432
G1 X131.617 Y164.397 E.28501
G1 X123.372 Y168.221 E.28497
G1 X114.781 Y171.127 E.28436
G1 X105.888 Y173.099 E.28561
G1 X96.832 Y174.097 E.28566
G1 X87.473 Y174.097 E.29344
G1 X78.479 Y173.109 E.2837
G1 X69.644 Y171.161 E.28367
G1 X61.068 Y168.275 E.28371
G1 X52.852 Y164.485 E.28369
G1 X44.833 Y159.66 E.29343
G1 X37.588 Y154.135 E.28568
G1 X30.984 Y147.861 E.28561
G1 X25.122 Y140.942 E.28433
G1 X20.028 Y133.415 E.28497
G1 X15.775 Y125.382 E.28499
G1 X12.421 Y116.956 E.28435
G1 X9.992 Y108.219 E.28433
G1 X8.516 Y99.251 E.28497
G1 X8.016 Y90.196 E.28435
G1 X8.496 Y81.119 E.285
G1 X10.01 Y71.883 E.29345
G1 X12.461 Y63.108 E.28567
G1 X15.845 Y54.65 E.28563
G1 X20.103 Y46.643 E.28434
G1 X25.21 Y39.125 E.28497
G1 X30.966 Y32.356 E.2786
M204 S1250
G1 X31.253 Y32.6 F9000
M204 S800
G1 F1200
G1 X31.365 Y32.468 E.00543
G1 X37.935 Y26.247 E.28369
G1 X45.122 Y20.783 E.28307
G1 X52.873 Y16.114 E.28371
M73 P0 R264
G1 X61.063 Y12.316 E.28306
G1 X69.634 Y9.417 E.28369
G1 X78.488 Y7.455 E.28435
G1 X87.504 Y6.462 E.2844
G1 X96.8 Y6.462 E.29147
G1 X105.754 Y7.445 E.28243
G1 X114.57 Y9.389 E.28306
G1 X123.087 Y12.255 E.28176
G1 X131.285 Y16.036 E.28306
G1 X139.251 Y20.829 E.29149
G1 X146.464 Y26.328 E.28439
G1 X153.039 Y32.574 E.28435
G1 X158.876 Y39.461 E.28306
G1 X163.948 Y46.954 E.2837
G1 X168.183 Y54.95 E.2837
G1 X171.53 Y63.357 E.28372
G1 X173.946 Y72.055 E.28304
G1 X175.414 Y80.984 E.28372
G1 X175.911 Y89.998 E.28306
G1 X175.432 Y99.034 E.28372
G1 X173.928 Y108.209 E.29152
G1 X171.49 Y116.945 E.28438
G1 X168.121 Y125.365 E.28435
G1 X163.884 Y133.336 E.28304
G1 X158.8 Y140.822 E.28373
G1 X152.953 Y147.7 E.28305
G1 X146.384 Y153.923 E.28371
G1 X139.199 Y159.389 E.28306
G1 X131.432 Y164.069 E.28432
G1 X123.222 Y167.874 E.28372
G1 X114.67 Y170.767 E.28307
G1 X105.816 Y172.728 E.28434
G1 X96.801 Y173.721 E.28437
G1 X87.504 Y173.721 E.2915
G1 X78.55 Y172.739 E.28243
G1 X69.754 Y170.8 E.28241
G1 X61.198 Y167.921 E.28305
G1 X53.019 Y164.147 E.28243
G1 X45.053 Y159.354 E.29149
G1 X37.841 Y153.855 E.28436
G1 X31.265 Y147.609 E.28437
G1 X25.428 Y140.722 E.28306
G1 X20.356 Y133.229 E.2837
G1 X16.122 Y125.233 E.28369
G1 X12.775 Y116.826 E.28372
G1 X10.358 Y108.128 E.28305
G1 X8.89 Y99.199 E.28372
G1 X8.393 Y90.185 E.28306
G1 X8.872 Y81.149 E.28372
G1 X10.376 Y71.974 E.29152
G1 X12.815 Y63.239 E.28436
G1 X16.183 Y54.818 E.28437
G1 X20.431 Y46.829 E.2837
G1 X25.516 Y39.345 E.2837
G1 X31.214 Y32.646 E.27575
M204 S1250
G1 X31.5 Y32.889 F9000
M204 S800
G1 F1200
G1 X31.632 Y32.735 E.00636
G1 X38.172 Y26.541 E.28243
G1 X45.325 Y21.101 E.28177
G1 X53.041 Y16.452 E.28245
G1 X61.212 Y12.663 E.2824
G1 X69.745 Y9.777 E.28243
G1 X78.56 Y7.825 E.28308
G1 X87.535 Y6.838 E.2831
G1 X96.769 Y6.838 E.28953
G1 X105.683 Y7.815 E.28117
G1 X114.459 Y9.749 E.28177
G1 X122.957 Y12.609 E.28113
G1 X131.118 Y16.375 E.28181
G1 X139.031 Y21.136 E.28955
G1 X146.212 Y26.609 E.28309
G1 X152.758 Y32.825 E.28304
G1 X158.57 Y39.681 E.28181
G1 X163.62 Y47.139 E.28241
G1 X167.836 Y55.099 E.28243
G1 X171.169 Y63.468 E.28245
G1 X173.576 Y72.127 E.28179
G1 X175.038 Y81.015 E.28242
G1 X175.534 Y90.009 E.28243
G1 X175.056 Y99.004 E.28243
G1 X173.562 Y108.117 E.28955
G1 X171.136 Y116.814 E.2831
G1 X167.784 Y125.197 E.28308
G1 X163.566 Y133.133 E.28179
G1 X158.506 Y140.585 E.28243
G1 X152.673 Y147.448 E.28241
G1 X146.132 Y153.642 E.28245
G1 X138.979 Y159.082 E.28177
G1 X131.246 Y163.741 E.28307
G1 X123.073 Y167.528 E.28243
G1 X114.559 Y170.406 E.28179
G1 X105.745 Y172.358 E.28305
G1 X96.77 Y173.345 E.2831
G1 X87.535 Y173.345 E.28956
G1 X78.622 Y172.368 E.28113
G1 X69.845 Y170.434 E.2818
G1 X61.328 Y167.567 E.28177
G1 X53.187 Y163.809 E.28114
G1 X45.274 Y159.047 E.28957
G1 X38.093 Y153.575 E.28307
G1 X31.546 Y147.358 E.28308
G1 X25.735 Y140.502 E.28179
G1 X20.685 Y133.044 E.28241
G1 X16.468 Y125.084 E.28244
G1 X13.135 Y116.716 E.28242
G1 X10.729 Y108.057 E.28178
G1 X9.266 Y99.169 E.28243
G1 X8.771 Y90.175 E.28243
G1 X9.248 Y81.179 E.28246
G1 X10.742 Y72.066 E.28955
G1 X13.169 Y63.369 E.28311
G1 X16.521 Y54.986 E.28308
G1 X20.749 Y47.033 E.28241
G1 X25.81 Y39.582 E.28242
G1 X31.461 Y32.935 E.27355
M204 S1250
G1 X31.748 Y33.179 F9000
M204 S800
G1 F1200
G1 X31.898 Y33.002 E.00727
G1 X38.408 Y26.835 E.28116
G1 X45.545 Y21.407 E.28114
G1 X53.226 Y16.78 E.28115
G1 X61.362 Y13.009 E.28117
G1 X69.856 Y10.137 E.28114
G1 X78.631 Y8.196 E.28178
G1 X87.565 Y7.214 E.28181
G1 X96.739 Y7.214 E.28764
G1 X105.612 Y8.185 E.27987
G1 X114.348 Y10.11 E.28048
G1 X122.827 Y12.963 E.2805
G1 X130.95 Y16.713 E.28052
G1 X138.81 Y21.442 E.28761
G1 X145.959 Y26.889 E.2818
G1 X152.477 Y33.077 E.2818
G1 X158.263 Y39.901 E.28052
G1 X163.291 Y47.325 E.28114
G1 X167.49 Y55.248 E.28115
G1 X170.808 Y63.578 E.28114
M73 P0 R263
G1 X173.21 Y72.218 E.28118
G1 X174.665 Y81.066 E.28115
G1 X175.157 Y90.019 E.28114
G1 X174.68 Y98.974 E.28118
G1 X173.196 Y108.026 E.28761
G1 X170.782 Y116.684 E.28182
M73 P1 R263
G1 X167.446 Y125.029 E.28178
G1 X163.238 Y132.947 E.28115
G1 X158.2 Y140.365 E.28116
G1 X152.392 Y147.196 E.28113
G1 X145.881 Y153.361 E.28114
G1 X138.759 Y158.776 E.28052
G1 X131.06 Y163.412 E.28178
G1 X122.924 Y167.182 E.28115
G1 X114.448 Y170.046 E.28052
G1 X105.673 Y171.988 E.28179
G1 X96.739 Y172.969 E.2818
G1 X87.566 Y172.969 E.28761
G1 X78.673 Y171.994 E.2805
G1 X69.936 Y170.068 E.28052
G1 X61.458 Y167.213 E.28049
G1 X53.354 Y163.471 E.27988
G1 X45.494 Y158.741 E.28763
G1 X38.345 Y153.294 E.2818
G1 X31.827 Y147.106 E.2818
G1 X26.041 Y140.282 E.28052
G1 X21.013 Y132.858 E.28114
G1 X16.815 Y124.935 E.28114
G1 X13.496 Y116.605 E.28115
G1 X11.095 Y107.965 E.28117
G1 X9.64 Y99.117 E.28115
G1 X9.148 Y90.164 E.28114
G1 X9.624 Y81.21 E.28114
G1 X11.108 Y72.157 E.28764
G1 X13.522 Y63.5 E.28179
G1 X16.858 Y55.154 E.28181
G1 X21.066 Y47.236 E.28115
G1 X26.104 Y39.818 E.28116
G1 X31.709 Y33.224 E.27135
M204 S1250
G1 X31.996 Y33.469 F9000
M204 S800
G1 F1200
G1 X32.179 Y33.254 E.00885
G1 X38.66 Y27.116 E.27988
G1 X45.765 Y21.713 E.27987
G1 X53.412 Y17.109 E.27987
G1 X61.511 Y13.356 E.27988
G1 X69.967 Y10.498 E.27987
G1 X78.703 Y8.566 E.28053
G1 X87.596 Y7.59 E.28051
G1 X96.708 Y7.59 E.2857
G1 X105.561 Y8.559 E.27924
G1 X114.257 Y10.476 E.2792
G1 X122.697 Y13.317 E.27922
G1 X130.783 Y17.051 E.27926
G1 X138.59 Y21.748 E.28567
G1 X145.707 Y27.17 E.28053
G1 X152.196 Y33.329 E.28051
G1 X157.969 Y40.137 E.27987
G1 X162.973 Y47.528 E.27986
G1 X167.152 Y55.416 E.27989
G1 X170.454 Y63.708 E.27985
G1 X172.843 Y72.309 E.27989
G1 X174.291 Y81.117 E.27988
G1 X174.78 Y90.029 E.27985
G1 X174.304 Y98.943 E.27989
G1 X172.83 Y107.935 E.2857
G1 X170.428 Y116.553 E.28051
G1 X167.108 Y124.861 E.28052
G1 X162.92 Y132.744 E.27988
G1 X157.906 Y140.129 E.27988
G1 X152.125 Y146.929 E.27984
G1 X145.644 Y153.067 E.27988
G1 X138.556 Y158.458 E.27922
G1 X130.892 Y163.075 E.28054
G1 X122.793 Y166.828 E.27988
G1 X114.337 Y169.685 E.27986
G1 X105.602 Y171.617 E.2805
G1 X96.708 Y172.593 E.28054
G1 X87.597 Y172.593 E.28567
G1 X78.744 Y171.624 E.27924
G1 X70.047 Y169.707 E.27923
G1 X61.607 Y166.866 E.27922
G1 X53.522 Y163.133 E.27922
G1 X45.714 Y158.435 E.28571
G1 X38.597 Y153.013 E.28053
G1 X32.108 Y146.854 E.28051
G1 X26.335 Y140.046 E.27987
G1 X21.331 Y132.655 E.27986
G1 X17.153 Y124.767 E.27987
G1 X13.85 Y116.475 E.27986
G1 X11.461 Y107.874 E.27989
G1 X10.014 Y99.066 E.27987
G1 X9.525 Y90.154 E.27985
G1 X10 Y81.24 E.27989
G1 X11.474 Y72.248 E.2857
G1 X13.876 Y63.63 E.28051
G1 X17.196 Y55.322 E.28052
G1 X21.384 Y47.44 E.27985
G1 X26.398 Y40.055 E.27988
G1 X31.958 Y33.514 E.26917
M204 S1250
G1 X32.244 Y33.758 F9000
M204 S800
G1 F1200
G1 X32.446 Y33.52 E.00979
G1 X38.897 Y27.41 E.27859
G1 X45.969 Y22.031 E.27859
G1 X53.598 Y17.437 E.27922
G1 X61.66 Y13.702 E.27859
G1 X70.078 Y10.859 E.27859
G1 X78.774 Y8.936 E.27924
G1 X87.627 Y7.966 E.27924
G1 X96.677 Y7.966 E.28376
G1 X105.489 Y8.93 E.27794
G1 X114.147 Y10.836 E.27797
G1 X122.549 Y13.664 E.27796
G1 X130.615 Y17.389 E.27857
G1 X138.37 Y22.054 E.28376
G1 X145.455 Y27.45 E.27924
G1 X151.915 Y33.581 E.27925
G1 X157.662 Y40.357 E.27858
G1 X162.645 Y47.714 E.27861
G1 X166.805 Y55.565 E.27858
G1 X170.1 Y63.838 E.27921
G1 X172.477 Y72.4 E.27861
G1 X173.917 Y81.168 E.2786
G1 X174.403 Y90.04 E.27859
G1 X173.928 Y98.913 E.27861
G1 X172.464 Y107.843 E.28373
G1 X170.074 Y116.423 E.27926
G1 X166.77 Y124.693 E.27923
G1 X162.602 Y132.54 E.27859
G1 X157.612 Y139.892 E.2786
G1 X151.845 Y146.677 E.2792
G1 X145.392 Y152.786 E.27861
G1 X138.336 Y158.152 E.27794
G1 X130.706 Y162.746 E.27925
G1 X122.644 Y166.481 E.27859
G1 X114.226 Y169.325 E.2786
G1 X105.53 Y171.247 E.27924
G1 X96.677 Y172.217 E.27924
G1 X87.627 Y172.217 E.28376
M73 P1 R262
G1 X78.815 Y171.253 E.27794
G1 X70.158 Y169.347 E.27794
G1 X61.756 Y166.519 E.27796
G1 X53.689 Y162.795 E.27859
G1 X45.935 Y158.129 E.28375
G1 X38.849 Y152.733 E.27926
G1 X32.389 Y146.603 E.27923
G1 X26.642 Y139.826 E.27861
G1 X21.659 Y132.47 E.27858
G1 X17.499 Y124.618 E.27861
G1 X14.211 Y116.364 E.27858
G1 X11.831 Y107.803 E.2786
G1 X10.387 Y99.015 E.27924
G1 X9.902 Y90.143 E.27859
G1 X10.376 Y81.27 E.2786
G1 X11.84 Y72.34 E.28373
G1 X14.23 Y63.76 E.27926
G1 X17.534 Y55.49 E.27923
G1 X21.702 Y47.643 E.27859
G1 X26.692 Y40.291 E.2786
G1 X32.205 Y33.804 E.26692
M204 S1250
G1 X32.493 Y34.048 F9000
M204 S800
G1 F1200
G1 X32.727 Y33.772 E.01135
G1 X39.148 Y27.691 E.27728
G1 X46.189 Y22.337 E.27734
G1 X53.784 Y17.765 E.27795
G1 X61.809 Y14.048 E.2773
G1 X70.189 Y11.219 E.27732
G1 X78.845 Y9.307 E.27794
G1 X87.658 Y8.342 E.27798
G1 X96.646 Y8.342 E.28181
G1 X105.438 Y9.303 E.27731
G1 X114.056 Y11.202 E.27669
G1 X122.419 Y14.018 E.27668
G1 X130.448 Y17.727 E.27731
G1 X138.15 Y22.361 E.28183
G1 X145.203 Y27.731 E.27794
G1 X151.634 Y33.832 E.27794
G1 X157.356 Y40.577 E.27733
G1 X162.317 Y47.899 E.27731
G1 X166.458 Y55.714 E.27731
G1 X169.74 Y63.949 E.27795
G1 X172.107 Y72.471 E.27732
G1 X173.543 Y81.219 E.27796
G1 X174.026 Y90.05 E.2773
G1 X173.552 Y98.882 E.27732
G1 X172.098 Y107.752 E.28182
G1 X169.72 Y116.292 E.27795
G1 X166.432 Y124.525 E.27796
G1 X162.274 Y132.355 E.27797
G1 X157.306 Y139.672 E.2773
G1 X151.578 Y146.411 E.27731
G1 X145.156 Y152.492 E.27731
G1 X138.116 Y157.846 E.27732
